X:1
T:[ID 8-118b]
T:[ID 8-118b]
T:Bezeichnung standardisiert: Tantz Tantz [Text]
T:Urheber unbekannt Datum in der hier transkribierten schriftlichen Quelle: 1792
C:Urheber unbekannt
C:Datum in der hier transkribierten schriftlichen Quelle: 1792
L:1/8
M:3/4
K:D
V:1 treble 
V:1
 d2 | d2 f2 a2 | a4 d2 | d2 f2 a2 | a4 a2 | b2 g2 e2 | a2 f2 d2 | g2 e2 c2 | d4 :: f2 | e3 dcB | %11
 A4 f2 | e3 dcB | A4 d2 | d2 f2 a2 | a4 d2 | d2 f2 a2 | a4 a2 | b2 g2 e2 | a2 f2 d2 | g2 e2 c2 | %21
 d4 :| %22

